dist/svgs/devui-icons/op/download.svg

<svg xmlns="http://www.w3.org/2000/svg" viewBox="0 0 16 16"><path d="M9 5.91l2.29-2.29L12.71 5 8 9.74 3.29 5l1.42-1.38L7 5.91V1h2v4.91zM13 12V9h2v5H1V9h2v3h10z"/></svg>

<?xml version="1.0" encoding="UTF-8"?>
<svg width="16px" height="16px" viewBox="0 0 16 16" version="1.1" xmlns="http://www.w3.org/2000/svg" xmlns:xlink="http://www.w3.org/1999/xlink">
    <title>操作/下载</title>
    <desc>Created with Sketch.</desc>
    <g id="操作/下载" stroke="none" stroke-width="1" fill="none" fill-rule="evenodd">
        <path d="M9,5.91 L11.29,3.62 L12.71,5 L8,9.74 L3.29,5 L4.71,3.62 L7,5.91 L7,1 L9,1 L9,5.91 Z M13,12 L13,9 L15,9 L15,14 L1,14 L1,9 L3,9 L3,12 L13,12 Z" id="Combined-Shape" fill="#293040" fill-rule="nonzero"></path>
    </g>
</svg>
